src/assets/images/apple.svg

<svg fill="none" height="20" viewBox="0 0 16 20" width="16" xmlns="http://www.w3.org/2000/svg"><g fill="#fff"><path d="m13.003 10.1758c.0192-1.49093.8005-2.86785 2.0706-3.6484-.8045-1.14969-2.1049-1.8521-3.5073-1.89595-1.4758-.15468-2.9061.8826-3.65795.8826-.76619 0-1.92385-.86745-3.17081-.84194-1.64003.05342-3.13255.96312-3.930639 2.39745-1.699023 2.94204-.432131 7.26654 1.195929 9.64484.81483 1.1648 1.766 2.4652 3.01216 2.4197 1.21906-.0502 1.67431-.7773 3.14531-.7773 1.45744 0 1.8848.7773 3.1557.7478 1.3075-.0215 2.1319-1.1696 2.918-2.3456.5853-.83 1.0357-1.7468 1.3339-2.7171-1.5531-.657-2.5633-2.179-2.5649-3.8661z"/><path d="m10.6033 3.06717c.7128-.85629 1.0644-1.95655.9791-3.06717-1.0891.11481-2.09609.635439-2.81843 1.45824-.71358.81244-1.07554 1.87443-1.00538 2.95396 1.10424.01116 2.15268-.48475 2.84471-1.34503z"/></g></svg>

<svg width="16" height="20" viewBox="0 0 16 20" fill="none" xmlns="http://www.w3.org/2000/svg">
<path d="M13.003 10.1758C13.0222 8.68487 13.8035 7.30795 15.0736 6.5274C14.2691 5.37771 12.9687 4.6753 11.5663 4.63145C10.0905 4.47677 8.6602 5.51405 7.90835 5.51405C7.14216 5.51405 5.9845 4.6466 4.73754 4.67211C3.09751 4.72553 1.60499 5.63523 0.806901 7.06956C-0.892122 10.0116 0.37477 14.3361 2.00283 16.7144C2.81766 17.8792 3.76883 19.1796 5.01499 19.1341C6.23405 19.0839 6.6893 18.3568 8.1603 18.3568C9.61774 18.3568 10.0451 19.1341 11.316 19.1046C12.6235 19.0831 13.4479 17.935 14.234 16.759C14.8193 15.929 15.2697 15.0122 15.5679 14.0419C14.0148 13.3849 13.0046 11.8629 13.003 10.1758Z" fill="white"/>
<path d="M10.6033 3.06717C11.3161 2.21088 11.6677 1.11062 11.5824 0C10.4933 0.11481 9.48631 0.635439 8.76397 1.45824C8.05039 2.27068 7.68843 3.33267 7.75859 4.4122C8.86283 4.42336 9.91127 3.92745 10.6033 3.06717Z" fill="white"/>
</svg>
